X: 84
T: Zhai Mianhua
%%abc-version 2.0
%%abcx-abcm2ps-target-version 5.9.1 (29 Sep 2008)
%%abc-creator hum2abc beta
%%abcx-conversion-date 2013/10/02 07:52:29
%%abc-edited-by Helmut Schaffrath
%%humdrum-veritas 1104858352
%%humdrum-veritas-data 2226166800
%%continueall 1
%%barnumbers 0
L: 1/8
M: 2/4
K: F
A c c c/ d/ [I:setbarnb 1]| 
c G G c | 
c c/ G/ c c/ G/ | 
F F D C | 
GG2A/ G/ | 
F F D C | 
c> G c3/ G/ | 
F> F D C | 
G G/ A< c f/ | 
A G/ A/ G D | 
C4 |]  



